X: 517
T: Cevrolur İmkân-ı Vuslat
C: Şerif İçli
O: Turkey
F: http://compmusic.upf.edu/node/140
N: rast--sarki--agiraksak--cevr_olur--serif_icli
N: makam= rast
N: form= sarki
N: usul= agiraksak = 9/4
M: 9/4
L: 1/16
K: C _1/4B ^f  
Q: 1/4=72
%%MIDI tuningsystem comma53
z8-z2G4B2 A2B2 A2G2 AGFE F2G2 F2GF  | \
w:  Cevr o lur  *  *  *  im  | 
E8-E2D4G2 F2G2 A2AG G6AB c2BA  | 
w:  *  kân_ ı  vus *  *  *  *  lat   | 
A8 z2G4A2 B2c2 d2e2 d2c2 B2AG c2Bc  | \
w:  *  ver me yen  *  *  *  î  | 
d8-d2d4e2 ^3/4f2d2 e2ed d6de dcBc  | 
w:  *  mâ *  *  *  *  la *  rın   SAZ  | 
d8 z2=fe d2e2 d2c4B2 c2_2/4BA A2B2 c2d2  | \
w:  *  Zulm_ *  *  o lur  *  *  ar  | 
=fedc BAG4A4B2 c2d2 c2B2 dcB^A B2c2 d2{f}ed  | 
w:  *  *  *  *  *  *  *  tık  bu  gû *  *  *  nâ   | 
d8 z2d4g2 g8 g/f/g/a/g=f f/e/f/g/fe e/d/e/f/ed  | 
w:  *  nâz_ ü  is tiğ  | 
d/c/d/e/dc BABc d2A4c2 B2G2 A2AG G6de dcBc  | 
w:  *  *  *  *  *  *  *  *  *  *  *  nâ *  *  *  *  la *  rın   SAZ  | 
d8 z2=fe d2e2 d2c4B2 c2_2/4BA A2B2 c2d2  | \
w:  *  Zulm_ *  *  o lur  *  *  ar  | 
=fedc BAG4A4B2 c2d2 c2B2 dcB^A B2c2 d2{f}ed  | 
w:  *  *  *  *  *  *  *  tık  bu  gû *  *  *  nâ   | 
d8 z2d4g2 g8 g/f/g/a/g=f f/e/f/g/fe e/d/e/f/ed  | 
w:  *  nâz_ ü  is tiğ  | 
d/c/d/e/dc BABc d2A4c2 B2G2 A2AG G6dc cBB^A  | 
w:  *  *  *  *  *  *  *  *  *  *  *  nâ *  *  *  *  la *  rın   SAZ  | 
B8 z2d2 c2cB B8 cB^AB A2B2 c2d2  | \
w:  *  Gün  *  ge *  lir  el  | 
e2d2 dccB c2c4c2 c8 dcB^A Bcde d2g2  | 
w:  *  *  *  *  *  *  *  den  gi der  el  | 
=fedc BAG4G4A2 B2c2 d2e2 d2c2 B2AG c2Bc  | 
w:  *  *  *  *  *  *  *  bet  ba hâ *  *  *  rı   | 
d8 z2d4e2 ^3/4f2d2 e2ed d6de dcBc  | \
w:  *  hüs *  *  *  *  nü *  nün   SAZ  | 
d8 z2=fe d2e2 d2c4B2 c2_2/4BA A2B2 c2d2  | 
w:  *  Zulm_ *  *  o lur  *  *  ar  | 
=fedc BAG4A4B2 c2d2 c2B2 dcB^A B2c2 d2{f}ed  | 
w:  *  *  *  *  *  *  *  tık  bu  gû *  *  *  nâ   | 
d8 z2d4g2 g8 g/f/g/a/g=f f/e/f/g/fe e/d/e/f/ed  | 
w:  *  nâz_ ü  is tiğ  | 
d/c/d/e/dc BABc d2A4c2 B2G2 A2AG G6de dcBc  | 
w:  *  *  *  *  *  *  *  *  *  *  *  nâ *  *  *  *  la *  rın   SAZ  | 
d8 z2=fe d2e2 d2c4B2 c2_2/4BA A2B2 c2d2  | \
w:  *  Zulm_ *  *  o lur  *  *  ar  | 
=fedc BAG4A4B2 c2d2 c2B2 dcB^A B2c2 d2{f}ed  | 
w:  *  *  *  *  *  *  *  tık  bu  gû *  *  *  nâ   | 
d8 z2d4g2 g8 g/f/g/a/g=f f/e/f/g/fe e/d/e/f/ed  | 
w:  *  nâz_ ü  is tiğ  | 
d/c/d/e/dc BABc d2A4c2 B2G2 A2AG G6z6  | |


